src/assets/imgs/icons/linkedin.svg

<svg width="24" height="24" viewBox="0 0 24 24" fill="none" xmlns="http://www.w3.org/2000/svg">
<path d="M22.2857 0H1.70893C0.766071 0 0 0.776786 0 1.73036V22.2696C0 23.2232 0.766071 24 1.70893 24H22.2857C23.2286 24 24 23.2232 24 22.2696V1.73036C24 0.776786 23.2286 0 22.2857 0ZM7.25357 20.5714H3.69643V9.11786H7.25893V20.5714H7.25357ZM5.475 7.55357C4.33393 7.55357 3.4125 6.62679 3.4125 5.49107C3.4125 4.35536 4.33393 3.42857 5.475 3.42857C6.61071 3.42857 7.5375 4.35536 7.5375 5.49107C7.5375 6.63214 6.61607 7.55357 5.475 7.55357ZM20.5875 20.5714H17.0304V15C17.0304 13.6714 17.0036 11.9625 15.1821 11.9625C13.3286 11.9625 13.0446 13.4089 13.0446 14.9036V20.5714H9.4875V9.11786H12.9V10.6821H12.9482C13.425 9.78214 14.5875 8.83393 16.3179 8.83393C19.9179 8.83393 20.5875 11.2071 20.5875 14.2929V20.5714Z" fill="currentColor"/>
</svg>

<svg xmlns="http://www.w3.org/2000/svg" fill="none" viewBox="0 0 24 24">
  <path fill="currentColor" d="M22.29 0H1.7C.77 0 0 .78 0 1.73v20.54C0 23.22.77 24 1.7 24H22.3c.94 0 1.71-.78 1.71-1.73V1.73C24 .78 23.23 0 22.29 0ZM7.25 20.57H3.7V9.12h3.56v11.45ZM5.47 7.55a2.06 2.06 0 1 1 0-4.12 2.06 2.06 0 0 1 0 4.12ZM20.6 20.57h-3.56V15c0-1.33-.03-3.04-1.85-3.04-1.85 0-2.14 1.45-2.14 2.94v5.67H9.5V9.12h3.41v1.56h.05a3.75 3.75 0 0 1 3.37-1.85c3.6 0 4.27 2.38 4.27 5.46v6.28Z"/>
</svg>
